ui/src/assets/icons/refresh.svg

<?xml version="1.0" encoding="UTF-8" standalone="no"?>
<svg
   xmlns:dc="http://purl.org/dc/elements/1.1/"
   xmlns:cc="http://creativecommons.org/ns#"
   xmlns:rdf="http://www.w3.org/1999/02/22-rdf-syntax-ns#"
   xmlns:svg="http://www.w3.org/2000/svg"
   xmlns="http://www.w3.org/2000/svg"
   xmlns:sodipodi="http://sodipodi.sourceforge.net/DTD/sodipodi-0.dtd"
   xmlns:inkscape="http://www.inkscape.org/namespaces/inkscape"
   width="20"
   height="20"
   viewBox="0 0 20 20"
   version="1.1"
   id="svg4"
   sodipodi:docname="updating.svg"
   inkscape:version="0.92.3 (unknown)">
  <metadata
     id="metadata10">
    <rdf:RDF>
      <cc:Work
         rdf:about="">
        <dc:format>image/svg+xml</dc:format>
        <dc:type
           rdf:resource="http://purl.org/dc/dcmitype/StillImage" />
        <dc:title />
      </cc:Work>
    </rdf:RDF>
  </metadata>
  <defs
     id="defs8" />
  <sodipodi:namedview
     pagecolor="#ffffff"
     bordercolor="#666666"
     borderopacity="1"
     objecttolerance="10"
     gridtolerance="10"
     guidetolerance="10"
     inkscape:pageopacity="0"
     inkscape:pageshadow="2"
     inkscape:window-width="1920"
     inkscape:window-height="1025"
     id="namedview6"
     showgrid="false"
     fit-margin-top="0"
     fit-margin-left="0"
     fit-margin-right="0"
     fit-margin-bottom="0"
     inkscape:zoom="19.666667"
     inkscape:cx="17.969095"
     inkscape:cy="9.3802644"
     inkscape:window-x="0"
     inkscape:window-y="27"
     inkscape:window-maximized="1"
     inkscape:current-layer="svg4" />
  <path
     style="fill:#00a1ff;fill-opacity:1;fill-rule:nonzero"
     d="M 10 0 C 4.48 0 0 4.48 0 10 C 0 15.52 4.48 20 10 20 C 15.52 20 20 15.52 20 10 C 20 4.48 15.52 0 10 0 z M 10.167969 4.15625 C 10.356676 4.1649908 10.546587 4.1832379 10.736328 4.2128906 C 11.645965 4.3550481 13.00304 4.9604139 13.623047 5.5 L 14.039062 5.8613281 L 13.414062 6.4941406 C 12.94855 6.9643357 12.74818 7.0957254 12.628906 7.0078125 C 11.464474 6.14956 10.880638 5.9522733 9.6816406 6.0136719 C 8.6503628 6.0664809 7.9977558 6.3567583 7.2167969 7.1074219 C 6.5604956 7.7382649 6.1230482 8.590555 6.0390625 9.4042969 L 5.9726562 10.042969 L 6.5117188 10.042969 C 7.12761 10.042969 7.3990716 10.258074 7.2148438 10.599609 C 7.0271384 10.947592 5.2155817 12.660156 5.0351562 12.660156 C 4.9444593 12.660156 4.3986244 12.186473 3.8203125 11.605469 C 2.9612315 10.74239 2.7821352 10.50136 2.8476562 10.294922 C 2.9147191 10.083637 3.0228038 10.042969 3.5 10.042969 L 4.0703125 10.042969 L 4.2109375 9.1621094 C 4.689488 6.1955943 7.3373653 4.0251375 10.167969 4.15625 z M 14.923828 7.4238281 C 15.231331 7.4238281 17.018111 9.0818598 17.146484 9.4863281 C 17.248989 9.8092859 16.911969 10.042969 16.34375 10.042969 C 15.901768 10.042969 15.898007 10.047254 15.822266 10.607422 C 15.468277 13.225563 13.4318 15.346488 10.884766 15.75 C 10.101468 15.874094 10.036339 15.875622 9.3984375 15.791016 C 8.312991 15.647052 7.1696242 15.145429 6.3632812 14.458984 L 5.9472656 14.103516 L 6.5722656 13.472656 C 7.0377774 13.002461 7.2381467 12.871071 7.3574219 12.958984 C 7.9816715 13.419092 8.5347713 13.730514 8.9453125 13.853516 C 9.677846 14.072988 11.079476 13.960709 11.71875 13.630859 C 12.881166 13.031082 13.805986 11.789893 13.941406 10.646484 L 14.009766 10.076172 L 13.443359 10.013672 C 12.92278 9.9549939 12.676467 9.79623 12.671875 9.515625 C 12.670906 9.454381 13.115968 8.9582496 13.660156 8.4140625 C 14.326616 7.7476024 14.739419 7.4238281 14.923828 7.4238281 z "
     id="path2" />
</svg>

<svg width="20" height="20" version="1.1" viewBox="0 0 20 20" xmlns="http://www.w3.org/2000/svg">
 <circle cx="10" cy="10" r="9.0678" fill="#fff" style="paint-order:stroke fill markers"/>
 <path d="m10 0c-5.52 0-10 4.48-10 10s4.48 10 10 10 10-4.48 10-10-4.48-10-10-10zm0.16797 4.1562c0.18871 0.0087408 0.37862 0.026988 0.56836 0.056641 0.90964 0.14216 2.2667 0.74752 2.8867 1.2871l0.41602 0.36133-0.625 0.63281c-0.46551 0.4702-0.66588 0.60158-0.78516 0.51367-1.1644-0.85825-1.7483-1.0555-2.9473-0.99414-1.0313 0.052809-1.6839 0.34309-2.4648 1.0938-0.6563 0.63084-1.0937 1.4831-1.1777 2.2969l-0.066406 0.63867h0.53906c0.61589 0 0.88735 0.2151 0.70312 0.55664-0.18771 0.34798-1.9993 2.0605-2.1797 2.0605-0.090697 0-0.63653-0.47368-1.2148-1.0547-0.85908-0.86308-1.0382-1.1041-0.97266-1.3105 0.067063-0.21128 0.17515-0.25195 0.65234-0.25195h0.57031l0.14062-0.88086c0.47855-2.9665 3.1264-5.137 5.957-5.0059zm4.7559 3.2676c0.3075 0 2.0943 1.658 2.2227 2.0625 0.1025 0.32296-0.23452 0.55664-0.80273 0.55664-0.44198 0-0.44574 0.004285-0.52148 0.56445-0.35399 2.6181-2.3905 4.7391-4.9375 5.1426-0.7833 0.12409-0.84843 0.12562-1.4863 0.041016-1.0854-0.14396-2.2288-0.64559-3.0352-1.332l-0.41602-0.35547 0.625-0.63086c0.46551-0.4702 0.66588-0.60158 0.78516-0.51367 0.62425 0.46011 1.1773 0.77153 1.5879 0.89453 0.73253 0.21947 2.1342 0.10719 2.7734-0.22266 1.1624-0.59978 2.0872-1.841 2.2227-2.9844l0.06836-0.57031-0.56641-0.0625c-0.52058-0.058678-0.76689-0.21744-0.77148-0.49805-9.69e-4 -0.061244 0.44409-0.55738 0.98828-1.1016 0.66646-0.66646 1.0793-0.99023 1.2637-0.99023z" fill="#00a1ff"/>
</svg>
